X:80
T: Kilfenora Lass
S: "Treoir"
C: B.Black
M: 6/8
L: 1/8
R: jig
K: Ador
Bd |: e2 A BAG | EAA ABd | e2 A B2 A | BGG GBd |
e2 A BAG | EAA ABd | efg dBA | BGG GBd :|
g3 efg | eag fed | gfg eag | fdc def |
|1 gfg efg | eag fed | efg dBA | BGG GBd :|
|2 gfg aga | b2 a ged | efg dBA | BGF G3 ||
